icons/qutim-default/scalable/status/im-visible-contact.svg

<?xml version="1.0" encoding="UTF-8" standalone="no"?>
<!-- Created with Inkscape (http://www.inkscape.org/) -->

<svg
   xmlns:dc="http://purl.org/dc/elements/1.1/"
   xmlns:cc="http://creativecommons.org/ns#"
   xmlns:rdf="http://www.w3.org/1999/02/22-rdf-syntax-ns#"
   xmlns:svg="http://www.w3.org/2000/svg"
   xmlns="http://www.w3.org/2000/svg"
   xmlns:xlink="http://www.w3.org/1999/xlink"
   xmlns:sodipodi="http://sodipodi.sourceforge.net/DTD/sodipodi-0.dtd"
   xmlns:inkscape="http://www.inkscape.org/namespaces/inkscape"
   width="16"
   height="16"
   id="svg2"
   version="1.1"
   inkscape:version="0.48+devel r11802"
   sodipodi:docname="im-visible-contact.svg">
  <defs
     id="defs4">
    <linearGradient
       id="linearGradient4414">
      <stop
         id="stop4416"
         offset="0"
         style="stop-color:#0069c8;stop-opacity:1;" />
      <stop
         id="stop4418"
         offset="1"
         style="stop-color:#55c4ff;stop-opacity:1;" />
    </linearGradient>
    <linearGradient
       inkscape:collect="always"
       xlink:href="#linearGradient4414"
       id="linearGradient4099"
       x1="8"
       y1="16"
       x2="8"
       y2="-4.4408921e-016"
       gradientUnits="userSpaceOnUse" />
  </defs>
  <sodipodi:namedview
     id="base"
     pagecolor="#ffffff"
     bordercolor="#666666"
     borderopacity="1.0"
     inkscape:pageopacity="0.0"
     inkscape:pageshadow="2"
     inkscape:zoom="7.9195959"
     inkscape:cx="4.4332804"
     inkscape:cy="14.338094"
     inkscape:document-units="px"
     inkscape:current-layer="layer1"
     showgrid="true"
     width="0px"
     height="0px"
     fit-margin-top="0"
     fit-margin-left="0"
     fit-margin-right="0"
     fit-margin-bottom="0"
     inkscape:window-width="1440"
     inkscape:window-height="848"
     inkscape:window-x="-8"
     inkscape:window-y="-8"
     inkscape:window-maximized="1">
    <inkscape:grid
       type="xygrid"
       id="grid3979"
       empspacing="5"
       visible="true"
       enabled="true"
       snapvisiblegridlinesonly="true" />
  </sodipodi:namedview>
  <metadata
     id="metadata7">
    <rdf:RDF>
      <cc:Work
         rdf:about="">
        <dc:format>image/svg+xml</dc:format>
        <dc:type
           rdf:resource="http://purl.org/dc/dcmitype/StillImage" />
        <dc:title></dc:title>
      </cc:Work>
    </rdf:RDF>
  </metadata>
  <g
     inkscape:label="Layer 1"
     inkscape:groupmode="layer"
     id="layer1"
     transform="translate(0,-1036.3622)">
    <path
       transform="matrix(0.625,0,0,0.625,3,1040.3622)"
       d="M 16,8 A 8,8 0 1 1 0,8 8,8 0 1 1 16,8 Z"
       sodipodi:ry="8"
       sodipodi:rx="8"
       sodipodi:cy="8"
       sodipodi:cx="8"
       id="path4111"
       style="fill:#000000;fill-opacity:1;fill-rule:evenodd;stroke:none;opacity:0.3"
       sodipodi:type="arc" />
    <path
       sodipodi:type="arc"
       style="opacity:1;fill:url(#linearGradient4099);fill-opacity:1.0;fill-rule:evenodd;stroke:none"
       id="path4090"
       sodipodi:cx="8"
       sodipodi:cy="8"
       sodipodi:rx="8"
       sodipodi:ry="8"
       d="M 16,8 A 8,8 0 1 1 0,8 8,8 0 1 1 16,8 Z"
       transform="matrix(0.625,0,0,0.625,3,1039.3622)" />
    <path
       style="opacity:0.6;fill:#ffffff;fill-opacity:1;fill-rule:evenodd;stroke:none"
       d="M 8 3 C 5.2385763 3 3 5.2385763 3 8 C 3 8.172589 3.01418 8.3319146 3.03125 8.5 C 3.2873 5.9787196 5.4111652 4 8 4 C 10.588835 4 12.7127 5.9787196 12.96875 8.5 C 12.98582 8.3319146 13 8.172589 13 8 C 13 5.2385763 10.761424 3 8 3 z "
       transform="translate(0,1036.3622)"
       id="path4105" />
  </g>
</svg>

<svg xmlns="http://www.w3.org/2000/svg" viewBox="0 0 16 16">
<defs>
<linearGradient id="linearGradient4414">
<stop offset="0" stop-color="#0069c8"/>
<stop offset="1" stop-color="#55c4ff"/>
</linearGradient>
<linearGradient xlink:href="#linearGradient4414" id="linearGradient4099" y1="16" y2="0" x2="0" gradientUnits="userSpaceOnUse"/>
</defs>
<g transform="translate(0 -1036.3622)">
<path opacity=".3" fill-rule="evenodd" d="m16,8a8,8 0 1,1 -16,0a8,8 0 1,1 16,0Z" transform="matrix(.625 0 0 .625 3 1040.3622)"/>
<path fill="url(#linearGradient4099)" fill-rule="evenodd" d="m16,8a8,8 0 1,1 -16,0a8,8 0 1,1 16,0Z" transform="matrix(.625 0 0 .625 3 1039.3622)"/>
<path opacity=".6" fill="#fff" fill-rule="evenodd" d="m8,3c-2.7614,0-5,2.2386-5,5c0,.1726 .0142,.3319 .0312,.5c.2561-2.5213 2.3799-4.5 4.9688-4.5c2.5888,0 4.7127,1.9787 4.9688,4.5c.0171-.1681 .0312-.3274 .0312-.5c0-2.7614-2.2386-5-5-5z" transform="translate(0 1036.3622)"/>
</g>
</svg>
